X:1
T:Crucifer (Nicholson), 10 10 refrain
T:Crucifer (Nicholson), 10 10 refrain
T:Sydney Hugo Nicholson, 1916
T:Public Domain Courtesy of the Cyber Hymnal™
C:Sydney Hugo Nicholson, 1916
Z:Public Domain
Z:Courtesy of the Cyber Hymnal™
%%score ( 1 2 ) ( 3 4 )
L:1/8
M:4/4
K:C
V:1 treble 
V:2 treble 
V:3 bass 
V:4 bass 
V:1
"^Refrain" G4 c3 G | F6 [DG]2 | E3 F G2 [CA]2 | D6 A,2 [G,D]2 | [G,E]2 [B,G]2 c4 | %5
 [Ec]2 [FA]2 G2- [FG-]2 | [EG]2 A2 FE D2 | [G,C]8 | G4 [C^F]3 [CE] | [D^F]4 D4 | %10
 [G,E]3 [B,^F] [B,G]2 [EA]2 | [^DB]4 G4 | c4 B2 A2 | [Dd]4 D4 | [CE]3 [EG] [DG]2 [D^F]2 | %15
 [DG]2- [A,CD-FG-]2 G4 [G,B,E]2 |] %16
V:2
 C2 D2 E2 C-C | C2 B,2 C2 x2 | C6 x2 | C2 B,2 x6 | x4 C2 D2 | x8 | x2 DC C2 B,A, | x8 | E2 D2 x4 | %9
 x8 | x8 | x4 E2 =D2 | C2 E2 D4 | x8 | x8 | x4 [F,A,D]2 x4 |] %16
V:3
 E,2 F,2 G,2- [E,,G,]2 | [D,,A,]2 [G,,G,]2 [A,,F,]2 [B,,D,]2 | G,3 [A,,F,] [G,,E,]2 [^F,,D,]2 | %3
 G,6 [B,,F,]2 x2 | [C,E,]2 [D,F,]2 [E,G,]2 [F,A,]2 | [G,B,]2 [A,C]2 [B,D]2 [A,C]2 | %6
 [G,B,]2 A,2 A,G, [G,,F,]2 | F,2 D,2 E,4 | [E,B,]4 [A,,A,]3 [A,,A,] | A,4 G,2 ^F,2 | %10
 [C,E,]3 [B,,^D,] E,2 [C,E,]2 | [B,,^F,]4 [E,G,]4 | A,2 G,2 ^F,4 | G,2 A,2 G,2 ^F,2 | %14
 [C,E,]3 [C,C] [D,A,]2 [D,A,]2 | [G,,B,]8 x2 |] %16
V:4
 C,,6 x2 | x8 | C,2 A,,- x5 | G,,4 A,,2 x4 | x8 | x8 | x2 F,E, D,2 x2 | C,8 | x8 | D,2 C,2 B,,4 | %10
 x8 | x8 | A,,4 D,2 C,2 | B,,4 B,,4 | x8 | x10 |] %16

